assets/layers/street_lamps/straight_pole.svg

<?xml version="1.0" encoding="UTF-8" standalone="no"?>
<svg
        xmlns:dc="http://purl.org/dc/elements/1.1/"
        xmlns:cc="http://creativecommons.org/ns#"
        xmlns:rdf="http://www.w3.org/1999/02/22-rdf-syntax-ns#"
        xmlns:sodipodi="http://sodipodi.sourceforge.net/DTD/sodipodi-0.dtd"
        xmlns:inkscape="http://www.inkscape.org/namespaces/inkscape"
        xmlns="http://www.w3.org/2000/svg"
        width="100mm"
        height="100mm"
        viewBox="0 0 99.999987 99.999992"
        version="1.1"
        id="svg8"
        sodipodi:docname="straight_pole.svg"
        inkscape:version="1.0.1 (3bc2e813f5, 2020-09-07)">
    <defs
            id="defs2"/>
    <sodipodi:namedview
            id="base"
            pagecolor="#ffffff"
            bordercolor="#666666"
            borderopacity="1.0"
            inkscape:pageopacity="0.0"
            inkscape:pageshadow="2"
            inkscape:zoom="1.4340417"
            inkscape:cx="-22.578158"
            inkscape:cy="290.51848"
            inkscape:document-units="mm"
            inkscape:current-layer="g888"
            inkscape:document-rotation="0"
            showgrid="true"
            units="mm"
            inkscape:window-width="2160"
            inkscape:window-height="1346"
            inkscape:window-x="-11"
            inkscape:window-y="-11"
            inkscape:window-maximized="1">
        <inkscape:grid
                type="xygrid"
                id="grid835"/>
    </sodipodi:namedview>
    <metadata
            id="metadata5">
        <rdf:RDF>
            <cc:Work
                    rdf:about="">
                <dc:format>image/svg+xml</dc:format>
                <dc:type
                        rdf:resource="http://purl.org/dc/dcmitype/StillImage"/>
                <dc:title/>
            </cc:Work>
        </rdf:RDF>
    </metadata>
    <g
            inkscape:label="Laag 1"
            inkscape:groupmode="layer"
            id="layer1">
        <g
                id="g864"
                transform="translate(-9.1324516,-2.7737965)">
            <g
                    id="g869">
                <g
                        id="g1550"
                        transform="matrix(1.75,0,0,1.75,-46.536839,-41.767847)">
                    <g
                            id="g1605"
                            transform="matrix(1.35,0,0,1.35,-21.342788,-16.055652)">
                        <g
                                id="g888"
                                transform="matrix(1.25,0,0,1.25,-15.134304,-18.038165)">
                            <g
                                    id="g905">
                                <g
                                        id="g871"
                                        transform="translate(-0.08664166)">
                                    <path
                                            style="fill:none;stroke:#000000;stroke-width:1.14286;stroke-linecap:butt;stroke-linejoin:miter;stroke-miterlimit:4;stroke-dasharray:none;stroke-opacity:1"
                                            d="M 60.651853,71.512113 V 45.305764"
                                            id="path1416"
                                            sodipodi:nodetypes="cc"/>
                                    <rect
                                            style="fill:#000000;stroke:#000000;stroke-width:1.14286;stroke-linecap:butt;stroke-linejoin:round;stroke-miterlimit:4;stroke-dasharray:none"
                                            id="rect1421"
                                            width="4.5357146"
                                            height="2.2678573"
                                            x="58.355999"
                                            y="69.272255"/>
                                </g>
                                <g
                                        id="g1446"/>
                                <g
                                        id="g867"
                                        transform="translate(-3.5449738e-7,8.1221356)">
                                    <path
                                            style="fill:#ffff00;stroke:#000000;stroke-width:1.14286;stroke-linecap:butt;stroke-linejoin:round;stroke-miterlimit:4;stroke-dasharray:none"
                                            id="path1426"
                                            sodipodi:type="arc"
                                            sodipodi:cx="60.537212"
                                            sodipodi:cy="34.523796"
                                            sodipodi:rx="3.779762"
                                            sodipodi:ry="2.2678573"
                                            sodipodi:start="0"
                                            sodipodi:end="3.1415927"
                                            sodipodi:open="true"
                                            sodipodi:arc-type="chord"
                                            d="m 64.316974,34.523796 a 3.779762,2.2678573 0 0 1 -1.889881,1.964022 3.779762,2.2678573 0 0 1 -3.779762,0 3.779762,2.2678573 0 0 1 -1.889881,-1.964022 z"/>
                                    <rect
                                            style="fill:none;stroke:#000000;stroke-width:1.14286;stroke-linecap:butt;stroke-linejoin:round;stroke-miterlimit:4;stroke-dasharray:none"
                                            id="rect1428"
                                            width="7.5595241"
                                            height="0.75595242"
                                            x="56.757454"
                                            y="32.255939"/>
                                    <g
                                            id="g1585">
                                        <path
                                                style="fill:none;stroke:#ffff00;stroke-width:0.571429;stroke-linecap:butt;stroke-linejoin:miter;stroke-miterlimit:4;stroke-dasharray:none;stroke-opacity:1"
                                                d="m 57.211024,37.547605 -1.511905,1.965477"
                                                id="path1456"
                                                sodipodi:nodetypes="cc"/>
                                        <path
                                                style="fill:none;stroke:#ffff00;stroke-width:0.571429;stroke-linecap:butt;stroke-linejoin:miter;stroke-miterlimit:4;stroke-dasharray:none;stroke-opacity:1"
                                                d="m 55.85031,36.489273 -2.419048,1.209523"
                                                id="path1460"
                                                sodipodi:nodetypes="cc"/>
                                        <path
                                                style="fill:none;stroke:#ffff00;stroke-width:0.571429;stroke-linecap:butt;stroke-linejoin:miter;stroke-miterlimit:4;stroke-dasharray:none;stroke-opacity:1"
                                                d="m 58.874119,38.303558 -0.604762,2.267857"
                                                id="path1462"
                                                sodipodi:nodetypes="cc"/>
                                    </g>
                                    <g
                                            id="g1590">
                                        <path
                                                style="fill:none;stroke:#ffff00;stroke-width:0.571429;stroke-linecap:butt;stroke-linejoin:miter;stroke-miterlimit:4;stroke-dasharray:none;stroke-opacity:1"
                                                d="m 63.863406,37.547605 1.511905,1.965477"
                                                id="path1456-5"
                                                sodipodi:nodetypes="cc"/>
                                        <path
                                                style="fill:none;stroke:#ffff00;stroke-width:0.571429;stroke-linecap:butt;stroke-linejoin:miter;stroke-miterlimit:4;stroke-dasharray:none;stroke-opacity:1"
                                                d="m 65.22412,36.489273 2.419048,1.209523"
                                                id="path1460-2"
                                                sodipodi:nodetypes="cc"/>
                                        <path
                                                style="fill:none;stroke:#ffff00;stroke-width:0.571429;stroke-linecap:butt;stroke-linejoin:miter;stroke-miterlimit:4;stroke-dasharray:none;stroke-opacity:1"
                                                d="m 62.200311,38.303558 0.604762,2.267857"
                                                id="path1462-5"
                                                sodipodi:nodetypes="cc"/>
                                    </g>
                                </g>
                            </g>
                        </g>
                    </g>
                </g>
            </g>
        </g>
    </g>
</svg>

<?xml version="1.0" encoding="UTF-8" standalone="yes"?>
<svg xmlns="http://www.w3.org/2000/svg" xmlns:xlink="http://www.w3.org/1999/xlink" width="375px" height="375px" viewBox="0 0 375 375" version="1.1">
  <g id="surface1">
    <path style="fill:none;stroke-width:1.14286;stroke-linecap:butt;stroke-linejoin:miter;stroke:rgb(0%,0%,0%);stroke-opacity:1;stroke-miterlimit:4;" d="M 60.65172 71.512176 L 60.65172 45.305829 " transform="matrix(11.07422,0,0,11.07422,-483.861879,-432.203273)"/>
    <path style="fill-rule:nonzero;fill:rgb(0%,0%,0%);fill-opacity:1;stroke-width:1.14286;stroke-linecap:butt;stroke-linejoin:round;stroke:rgb(0%,0%,0%);stroke-opacity:1;stroke-miterlimit:4;" d="M 58.356129 69.272317 L 62.891578 69.272317 L 62.891578 71.540042 L 58.356129 71.540042 Z M 58.356129 69.272317 " transform="matrix(11.07422,0,0,11.07422,-483.861879,-432.203273)"/>
    <path style="fill-rule:nonzero;fill:rgb(100%,100%,0%);fill-opacity:1;stroke-width:1.14286;stroke-linecap:butt;stroke-linejoin:round;stroke:rgb(0%,0%,0%);stroke-opacity:1;stroke-miterlimit:4;" d="M 64.317106 34.52373 C 64.317106 35.333959 63.596471 36.082812 62.427159 36.487751 C 61.257494 36.893042 59.81693 36.893042 58.647265 36.487751 C 57.477953 36.082812 56.757318 35.333959 56.757318 34.52373 Z M 64.317106 34.52373 " transform="matrix(11.07422,0,0,11.07422,-482.902394,-342.256963)"/>
    <path style="fill:none;stroke-width:1.14286;stroke-linecap:butt;stroke-linejoin:round;stroke:rgb(0%,0%,0%);stroke-opacity:1;stroke-miterlimit:4;" d="M 56.757318 32.256005 L 64.317106 32.256005 L 64.317106 33.011913 L 56.757318 33.011913 Z M 56.757318 32.256005 " transform="matrix(11.07422,0,0,11.07422,-482.902394,-342.256963)"/>
    <path style="fill:none;stroke-width:0.571429;stroke-linecap:butt;stroke-linejoin:miter;stroke:rgb(100%,100%,0%);stroke-opacity:1;stroke-miterlimit:4;" d="M 57.210934 37.547715 L 55.699117 39.513147 " transform="matrix(11.07422,0,0,11.07422,-482.902394,-342.256963)"/>
    <path style="fill:none;stroke-width:0.571429;stroke-linecap:butt;stroke-linejoin:miter;stroke:rgb(100%,100%,0%);stroke-opacity:1;stroke-miterlimit:4;" d="M 55.85044 36.489161 L 53.431393 37.698685 " transform="matrix(11.07422,0,0,11.07422,-482.902394,-342.256963)"/>
    <path style="fill:none;stroke-width:0.571429;stroke-linecap:butt;stroke-linejoin:miter;stroke:rgb(100%,100%,0%);stroke-opacity:1;stroke-miterlimit:4;" d="M 58.874073 38.303623 L 58.269488 40.571348 " transform="matrix(11.07422,0,0,11.07422,-482.902394,-342.256963)"/>
    <path style="fill:none;stroke-width:0.571429;stroke-linecap:butt;stroke-linejoin:miter;stroke:rgb(100%,100%,0%);stroke-opacity:1;stroke-miterlimit:4;" d="M 63.863491 37.547715 L 65.375307 39.513147 " transform="matrix(11.07422,0,0,11.07422,-482.902394,-342.256963)"/>
    <path style="fill:none;stroke-width:0.571429;stroke-linecap:butt;stroke-linejoin:miter;stroke:rgb(100%,100%,0%);stroke-opacity:1;stroke-miterlimit:4;" d="M 65.223984 36.489161 L 67.643032 37.698685 " transform="matrix(11.07422,0,0,11.07422,-482.902394,-342.256963)"/>
    <path style="fill:none;stroke-width:0.571429;stroke-linecap:butt;stroke-linejoin:miter;stroke:rgb(100%,100%,0%);stroke-opacity:1;stroke-miterlimit:4;" d="M 62.200351 38.303623 L 62.804937 40.571348 " transform="matrix(11.07422,0,0,11.07422,-482.902394,-342.256963)"/>
  </g>
</svg>
